!!!COM:	la Rue, Pierre de
!!!CDT:	~1452///-1518/11/20
!!!OPR:	Missa Incessament
!!!ONM:	3
!!!OTL:	Credo
!!!AGN:	Mass; Credo
!!!SCT:	Rue1016c
!!!SCA:	Rue1016c
!!!voices:	5
!!!voices-OPR:	5
**kern	**kern	**kern	**kern	**kern
*staff5	*staff4	*staff3	*staff2	*staff1
*Ivox	*Ivox	*Ivox	*Ivox	*Ivox
*I"Bassus2	*I"Bassus1	*I"Tenor	*I"Contra	*I"Discantus
*I'B2	*I'B1	*I'T	*I'C	*I'D
*>[A,B,C]	*>[A,B,C]	*>[A,B,C]	*>[A,B,C]	*>[A,B,C]
*>A	*>A	*>A	*>A	*>A
*clefF4	*clefF4	*clefGv2	*clefGv2	*clefG2
*k[]	*k[]	*k[]	*k[]	*k[]
*M2/1	*M2/1	*M2/1	*M2/1	*M2/1
*met(C2)	*met(C2)	*met(C2)	*met(C2)	*met(C2)
!!section: Patrem omnipotentem
!!!OMD: Patrem omnipotentem
!LO:TX:Z=11:t=[Canon at the upper fourth]	!	!	!	!
=1-	=1-	=1-	=1-	=1-
0r	0r	0G	0r	0r
=2.	=2.	=2.	=2.	=2.
0r	0r	1G	0r	0r
.	.	[1G	.	.
=3	=3	=3	=3	=3
0r	0r	1G]	0g	0r
.	.	1G	.	.
=4.	=4.	=4.	=4.	=4.
0r	0r	1E	1g	0r
.	.	1C	[1g	.
=5	=5	=5	=5	=5
0r	0r	2.G/	1g]	0g
.	.	4A/	.	.
.	.	2B\	1g	.
.	.	2c\	.	.
=6.	=6.	=6.	=6.	=6.
0r	0r	2G/	2.e\	1g
.	.	1c	.	.
.	.	.	4f\	.
.	.	.	1d	[1g
.	.	2B\	.	.
=7	=7	=7	=7	=7
0r	0r	1c	1.c	1g]
.	.	2.C/	.	1g
.	.	.	4B\	.
.	.	4D/	4A/	.
=8.	=8.	=8.	=8.	=8.
0r	0r	2E/	2G/	2.e/
.	.	2C/	1c	.
.	.	.	.	4f/
.	.	1G	.	1d
.	.	.	2B\	.
=9	=9	=9	=9	=9
0r	0r	2.C/	0c	1c
.	.	4D/	.	.
.	.	2E/	.	2r
.	.	2F/	.	2c/
=10.	=10.	=10.	=10.	=10.
0r	0r	2C/	1r	1c
.	.	1F	.	.
.	.	.	1G	1c
.	.	2E/	.	.
=11	=11	=11	=11	=11
0r	0r	1F	2.A/	2.c/
.	.	.	4B\	4d/
.	.	1r	2c\	2e/
.	.	.	2d\	2f/
=12.	=12.	=12.	=12.	=12.
0r	0r	1r	2e\	2g/
.	.	.	1f	1a
.	.	1C	.	.
.	.	.	2e\	2g/
=13	=13	=13	=13	=13
0r	0r	2.F/	0f	0a
.	.	4G/	.	.
.	.	2A/	.	.
.	.	2B\	.	.
=14.	=14.	=14.	=14.	=14.
0r	0r	2c\	2e\	1a
.	.	1d	2d\	.
.	.	.	1e	1a
.	.	2c#i\	.	.
=15	=15	=15	=15	=15
0r	0r	1.d	0d	2.f/
.	.	.	.	4g/
.	.	.	.	2a/
.	.	4c\	.	2b\
.	.	4B\	.	.
=16.	=16.	=16.	=16.	=16.
0r	0r	2A/	1r	2cc\
.	.	2G/	.	1dd
.	.	1A	2r	.
.	.	.	2A/	2cc\
=17	=17	=17	=17	=17
0r	0r	2.G/	2.B\	2b\
.	.	.	.	1dd
.	.	4A/	4c\	.
.	.	2B\	2d\	.
.	.	2c\	2e\	4cc\
.	.	.	.	4b\
=18.	=18.	=18.	=18.	=18.
0r	0r	2d\	2f\	2a/
.	.	2e\	1g	2g/
.	.	1d	.	1a
.	.	.	2f#i\	.
=19	=19	=19	=19	=19
1.GG	0r	[0G	1.g	2g/
.	.	.	.	2d/
.	.	.	.	4g/
.	.	.	.	4a/
2GG/	.	.	4f\	4b\
.	.	.	4e\	4cc\
=20.	=20.	=20.	=20.	=20.
1GG	0r	0G]	4f\	2dd\
.	.	.	4e\	.
.	.	.	4d\	1cc
.	.	.	4c\	.
1GG	.	.	1d	.
.	.	.	.	2b\
=21	=21	=21	=21	=21
2.C/	1.C	0r	[0c	0cc
4D\	.	.	.	.
2E\	.	.	.	.
2F\	2C/	.	.	.
=22.	=22.	=22.	=22.	=22.
2G\	1C	0r	0c]	0r
1A	.	.	.	.
.	1C	.	.	.
2G\	.	.	.	.
=23	=23	=23	=23	=23
1.A	2.F\	0r	0r	0r
.	4G\	.	.	.
.	2A\	.	.	.
4G\	2B\	.	.	.
4F\	.	.	.	.
=24.	=24.	=24.	=24.	=24.
2E\	2c\	0r	0r	0r
2D\	1d	.	.	.
1E	.	.	.	.
.	2c#i\	.	.	.
=25	=25	=25	=25	=25
2D\	1.d	0r	0r	0r
2D\	.	.	.	.
4D\	.	.	.	.
4E\	.	.	.	.
4F\	4c\	.	.	.
4G\	4B\	.	.	.
=26.	=26.	=26.	=26.	=26.
2A\	2A\	0r	0r	0r
1G	2G\	.	.	.
.	1A	.	.	.
2F#i\	.	.	.	.
=27	=27	=27	=27	=27
[0G	2G\	0r	0r	1.g
.	2G\	.	.	.
.	4G\	.	.	.
.	4A\	.	.	.
.	4B\	.	.	2g/
.	4c\	.	.	.
=28.	=28.	=28.	=28.	=28.
0G]	2d\	1r	1r	1g
.	1c	.	.	.
.	.	1G	1d	1g
.	2B\	.	.	.
=29	=29	=29	=29	=29
0r	[0c	2.C/	2e\	2.e/
.	.	.	1g	.
.	.	4D/	.	4f/
.	.	2E/	.	2g/
.	.	[2F/	[2f\	[2a/
=30.	=30.	=30.	=30.	=30.
0r	0c]	4F/]	2f\]	2a/]
.	.	4G/	.	.
.	.	4A/	4e\	1cc
.	.	4B\	4d\	.
.	.	1A	2e\	.
.	.	.	2f\	4b\
.	.	.	.	4a/
=31	=31	=31	=31	=31
0r	0r	2G/	2g\	2b\
.	.	1c	2e\	2g/
.	.	.	1d	1dd
.	.	2B\	.	.
=32.	=32.	=32.	=32.	=32.
0r	0r	1c	1c	2r
.	.	.	.	1g
.	.	2r	1e	.
.	.	2C/	.	2g/
=33	=33	=33	=33	=33
0r	0r	2.C/	2e\	2.e/
.	.	.	1g	.
.	.	4D/	.	4f/
.	.	2E/	.	2g/
.	.	[2F/	[2f\	[2a/
=34.	=34.	=34.	=34.	=34.
0r	0r	4F/]	2f\]	2a/]
.	.	4G/	.	.
.	.	4A/	4e\	1cc
.	.	4B\	4d\	.
.	.	1A	2e\	.
.	.	.	2f\	4b\
.	.	.	.	4a/
=35	=35	=35	=35	=35
1G	0r	2G/	[0g	2b\
.	.	1d	.	2g/
1G	.	.	.	[1dd
.	.	2c\	.	.
=36.	=36.	=36.	=36.	=36.
1.G	0r	2B\	0g]	2dd\]
.	.	2A/	.	2cc\
.	.	[1G	.	2b\
2F\	.	.	.	2a/
=37	=37	=37	=37	=37
2E\	1c	1G]	0r	2g/
2D\	.	.	.	2f/
2C/	1c	[1c	.	[1e
2BB/	.	.	.	.
=38.	=38.	=38.	=38.	=38.
[0AA	1.c	2c\]	0r	1e]
.	.	2B\	.	.
.	.	2A/	.	[1cc
.	2B\	2G/	.	.
=39	=39	=39	=39	=39
0AA]	2A\	2F/	1r	2cc\]
.	2G\	4E/	.	2b\
.	.	4D/	.	.
.	2F\	1C	1c	2a/
.	2E\	.	.	2g/
=40.	=40.	=40.	=40.	=40.
0r	[0D	1D	1.f	2f/
.	.	.	.	2e/
.	.	1A	.	4d/
.	.	.	.	4e/
.	.	.	2e\	4f/
.	.	.	.	4g/
=41	=41	=41	=41	=41
1r	0D]	1d	2d\	4a/
.	.	.	.	4d/
.	.	.	2c\	1g
1D	.	2d\	2B\	.
.	.	2d\	2A/	2f#i/
=42.	=42.	=42.	=42.	=42.
1.G	0r	0B	[0G	[0g
2F\	.	.	.	.
=43	=43	=43	=43	=43
2E\	1r	0r	0G]	0g]
2D\	.	.	.	.
2C/	1G	.	.	.
2BB/	.	.	.	.
=44.	=44.	=44.	=44.	=44.
2.AA/	1.c	0r	0r	0r
4BB/	.	.	.	.
4C/	.	.	.	.
4D\	.	.	.	.
2E\	2B\	.	.	.
=45	=45	=45	=45	=45
2AA/	2A\	0r	0r	0r
1D	2G\	.	.	.
.	2F\	.	.	.
2C/	2E\	.	.	.
=46.	=46.	=46.	=46.	=46.
1D	2.D\	0r	0r	0r
.	4E\	.	.	.
2D\	4F\	.	.	.
.	4G\	.	.	.
[2D\	2A\	.	.	.
=47	=47	=47	=47	=47
2D\]	2D\	0r	0r	0r
4C/	1G	.	.	.
4BB/	.	.	.	.
1AA	.	.	.	.
.	2F#i\	.	.	.
=48.	=48.	=48.	=48.	=48.
1GG	1G	1r	0B	0d
1GG	2G\	1D	.	.
.	[2G\	.	.	.
=49	=49	=49	=49	=49
1GG	2G\]	1D	1B	1d
.	4F\	.	.	.
.	4E\	.	.	.
1GG	1D	1G	1B	1d
=50.	=50.	=50.	=50.	=50.
1C	1C	1G	2c\	1e
.	.	.	1c	.
[1C	1C	1E	.	[1e
.	.	.	4B\	.
.	.	.	4A/	.
=51	=51	=51	=51	=51
2C/]	1C	1E	2G/	2e/]
2AA/	.	.	1A	2c/
[1AA	1C	2r	.	[1c
.	.	[2c\	[2A/	.
=52.	=52.	=52.	=52.	=52.
1AA]	1F	4c\]	2A/]	1c]
.	.	4B\	.	.
.	.	2.A/	1A	.
1AA	[1F	.	.	1c
.	.	4G/	.	.
.	.	[2A/	[2A/	.
=53	=53	=53	=53	=53
1D	2F\]	4A/]	2A/]	1d
.	.	4G/	.	.
.	2D\	4F/	1.A	.
.	.	4E/	.	.
1D	[1D	1F	.	1d
=54.	=54.	=54.	=54.	=54.
1GG	1D]	1.G	1.B	1d
[1GG	1D	.	.	[1d
.	.	4F/	2c\	.
.	.	4E/	.	.
=55	=55	=55	=55	=55
1GG]	1G	2D/	1d	1d]
.	.	1G	.	.
[1C	1G	.	1c	[1e
.	.	[2E/	.	.
=56.	=56.	=56.	=56.	=56.
2C/]	1C	2E/]	[0e	2e/]
2D\	.	1A	.	2f/
1E	[1C	.	.	1g
.	.	2G/	.	.
=57	=57	=57	=57	=57
[0AA	1C]	[0A	1e]	2c/
.	.	.	.	2.a/
.	[1F	.	1c	.
.	.	.	.	4g/
.	.	.	.	2f/
=58.	=58.	=58.	=58.	=58.
0AA]	2F\]	0A_	1f	2e/
.	2G\	.	.	1d
.	1A	.	1e	.
.	.	.	.	2c#i/
=59	=59	=59	=59	=59
0r	[0D	0A]	[0d	1d
.	.	.	.	2r
.	.	.	.	2a/
=60.	=60.	=60.	=60.	=60.
0r	0D]	1r	0d]	2b-i\
.	.	.	.	2.a/
.	.	1A	.	.
.	.	.	.	4g/
.	.	.	.	2f/
=61	=61	=61	=61	=61
1AA	0r	1c	0r	2e/
.	.	.	.	2.a/
1AA	.	2c\	.	.
.	.	.	.	4g/
.	.	[2A/	.	2f/
=62.	=62.	=62.	=62.	=62.
0AA	0r	4A/]	0r	2e/
.	.	4G/	.	.
.	.	2F/	.	1d
.	.	1E	.	.
.	.	.	.	2c#i/
=63	=63	=63	=63	=63
1r	1D	2D/	2r	[0d
.	.	2A/	2.d\	.
2r	1D	2B\	.	.
.	.	.	4c\	.
2D\	.	[2d\	2B\	.
=64.	=64.	=64.	=64.	=64.
2BB/	0D	4d\]	2A/	0d]
.	.	4c\	.	.
2GG/	.	2B\	1G	.
1D	.	1A	.	.
.	.	.	2F#i/	.
=65	=65	=65	=65	=65
0GG	1r	0G	2G/	0r
.	.	.	2d\	.
.	2r	.	2B\	.
.	2G\	.	2G/	.
=66.	=66.	=66.	=66.	=66.
1r	2E\	2r	1c	0r
.	2C/	2G/	.	.
2r	1G	2E/	2B\	.
2G\	.	2C/	[2g\	.
=67	=67	=67	=67	=67
2E\	0C	1G	2g\]	0r
2C/	.	.	1g	.
2G\	.	1C	.	.
2G\	.	.	2g\	.
=68.	=68.	=68.	=68.	=68.
2A\	1r	2r	2e\	0r
2A\	.	2c\	2e\	.
2.A\	2r	2A/	2c\	.
.	2c\	[2F/	2c\	.
4G\	.	.	.	.
=69	=69	=69	=69	=69
2F\	2A\	4F/]	1f	0r
.	.	4G/	.	.
4E\	2F\	4A/	.	.
4D\	.	4B\	.	.
1E	2c\	1G	1g	.
.	2c\	.	.	.
=70.	=70.	=70.	=70.	=70.
1D	2d\	0A	0f	0r
.	2d\	.	.	.
2r	2.d\	.	.	.
[2D\	.	.	.	.
.	4c\	.	.	.
=71	=71	=71	=71	=71
2D\]	2B\	0r	0r	0r
2E\	4A\	.	.	.
.	4G\	.	.	.
1F	1A	.	.	.
=72.	=72.	=72.	=72.	=72.
2.E\	1G	0r	0r	0r
4F\	.	.	.	.
4G\	2r	.	.	.
4A\	.	.	.	.
[2B\	[2G\	.	.	.
=73	=73	=73	=73	=73
2B\]	2G\]	0r	0r	0r
2.A\	2A\	.	.	.
.	1B	.	.	.
4G\	.	.	.	.
2G\	.	.	.	.
=74.	=74.	=74.	=74.	=74.
2A\	2.A\	0r	0r	0r
2A\	.	.	.	.
.	4B\	.	.	.
2A\	4c\	.	.	.
.	4d\	.	.	.
[2A\	[2e\	.	.	.
=75	=75	=75	=75	=75
2A\]	2e\]	0r	0r	0r
4G\	2.d\	.	.	.
4F\	.	.	.	.
1E	.	.	.	.
.	4c#i\	.	.	.
.	2c#i\	.	.	.
=76.	=76.	=76.	=76.	=76.
[0D	2d\	1.A	2r	1.a
.	2d\	.	2d\	.
.	2d\	.	2.d\	.
.	[2d\	2A/	.	2a/
.	.	.	4e\	.
=77	=77	=77	=77	=77
0D]	2d\]	1A	2f\	1a
.	4c\	.	1g	.
.	4B\	.	.	.
.	1A	[1d	.	1a
.	.	.	2f#i\	.
=78.	=78.	=78.	=78.	=78.
0r	[0G	1d]	1g	1b
.	.	1B	1e	1g
=79	=79	=79	=79	=79
0r	0G]	2G/	1d	2r
.	.	2d\	.	1dd
.	.	2B\	2r	.
.	.	2G/	2g\	2b\
=80.	=80.	=80.	=80.	=80.
0r	0r	2.c\	2e\	2g/
.	.	.	2c\	1cc
.	.	4B\	.	.
.	.	2A/	2.f\	.
.	.	2G/	.	2b\
.	.	.	4e\	.
=81	=81	=81	=81	=81
0r	0r	2F/	2c\	2a/
.	.	4E/	1d	4g/
.	.	4D/	.	4f/
.	.	1E	.	1g
.	.	.	2c\	.
=82.	=82.	=82.	=82.	=82.
1r	0r	0D	2d\	0f
.	.	.	2A/	.
1D	.	.	2B\	.
.	.	.	[2A/	.
=83	=83	=83	=83	=83
1F	0r	0r	2A/]	0r
.	.	.	2.d\	.
1E	.	.	.	.
.	.	.	4c#i\	.
.	.	.	2c#i\	.
=84.	=84.	=84.	=84.	=84.
1D	1r	0r	[0d	0r
2BB/	1G	.	.	.
[2GG/	.	.	.	.
=85	=85	=85	=85	=85
2GG/]	1B	0r	0d]	0r
1G	.	.	.	.
.	1A	.	.	.
2F#i\	.	.	.	.
=86.	=86.	=86.	=86.	=86.
0G	1G	1r	0r	1r
.	2E\	1C	.	1e
.	[2C/	.	.	.
=87	=87	=87	=87	=87
0r	2C/]	1E	0r	1g
.	1c	.	.	.
.	.	1D	.	1f
.	2B\	.	.	.
=88.	=88.	=88.	=88.	=88.
0r	0c	4C/	1r	2e/
.	.	4D/	.	.
.	.	4E/	.	1g
.	.	4F/	.	.
.	.	2G/	1e	.
.	.	[2C/	.	2e/
=89	=89	=89	=89	=89
0r	0r	2C/]	1g	2c/
.	.	1c	.	2e/
.	.	.	1f	1d
.	.	2B\	.	.
=90.	=90.	=90.	=90.	=90.
0r	0r	1c	2e\	4c/
.	.	.	.	4d/
.	.	.	1g	4e/
.	.	.	.	4f/
.	.	2.C/	.	2g/
.	.	.	2e\	[2c/
.	.	4D/	.	.
=91	=91	=91	=91	=91
1r	0r	2E/	2c\	2c/]
.	.	2C/	2e\	1cc
2r	.	1G	1d	.
2G\	.	.	.	2b\
=92.	=92.	=92.	=92.	=92.
1A	0r	2r	1c	0cc
.	.	2F/	.	.
1F	.	1A	2r	.
.	.	.	2c\	.
=93	=93	=93	=93	=93
2r	1r	1G	1e	2r
2E\	.	.	.	2g/
2F\	2r	2r	1c	1a
2F\	2c\	2F/	.	.
=94.	=94.	=94.	=94.	=94.
1D	1d	2A/	2r	1f
.	.	2A/	2f\	.
2r	1B	1G	2e\	2r
2E\	.	.	2e\	2g/
=95	=95	=95	=95	=95
2F\	2r	2r	1c	2a/
2F\	2A\	2F/	.	2a/
1D	2B\	2F/	2r	1f
.	2B\	2F/	2f\	.
=96.	=96.	=96.	=96.	=96.
1E	1G	2C/	2g\	1r
.	.	1G	2g\	.
2C/	2r	.	2e\	2r
[2D\	2A\	[2F/	[2f\	2a/
=97	=97	=97	=97	=97
4D\]	2B\	2F/]	4f\]	1dd
4C/	.	.	4e\	.
4BB/	2B\	2E/	4d\	.
4AA/	.	.	4c\	.
1BB	1G	1D	4B\	1dd
.	.	.	4c\	.
.	.	.	4d\	.
.	.	.	4B\	.
=98.	=98.	=98.	=98.	=98.
1AA	1A	1E	1c	2.cc\
.	.	.	.	4b\
1r	2F\	1r	2f\	2a/
.	[2G\	.	[2e\	2g/
=99	=99	=99	=99	=99
0r	4G\]	0r	2e\]	4b-i\
.	4F\	.	.	4a/
.	4E\	.	1d	4g/
.	4D\	.	.	4f/
.	1E	.	.	1g
.	.	.	2c#i\	.
=100.	=100.	=100.	=100.	=100.
0r	1D	2r	0d	1f
.	.	2A/	.	.
.	1r	2B\	.	2r
.	.	2c\	.	2a/
=101	=101	=101	=101	=101
0r	0r	2.d\	0r	2b\
.	.	.	.	2cc\
.	.	4c\	.	.
.	.	2B\	.	2dd\
.	.	2B\	.	2dd\
=102.	=102.	=102.	=102.	=102.
0r	0r	2A/	1r	2.cc\
.	.	2F/	.	.
.	.	.	.	4b\
.	.	2A/	2r	2a/
.	.	2B\	2d\	[2g/
=103	=103	=103	=103	=103
0r	0r	2c\	2e\	4g/]
.	.	.	.	4f/
.	.	1d	2f\	4e/
.	.	.	.	4d/
.	.	.	2g\	1e
.	.	2c#i\	2g\	.
=104.	=104.	=104.	=104.	=104.
0r	0r	1d	2.f\	2.d/
.	.	.	4e\	4e/
.	.	1r	2d\	4f/
.	.	.	.	4g/
.	.	.	[2c\	[2a/
=105	=105	=105	=105	=105
1r	0r	0r	4c\]	2a/]
.	.	.	4B\	.
.	.	.	4A/	1g
.	.	.	4G/	.
2r	.	.	1A	.
2D\	.	.	.	2f#i/
=106.	=106.	=106.	=106.	=106.
2E\	0r	1r	1G	0g
2F\	.	.	.	.
2G\	.	2r	2r	.
2G\	.	2G/	2d\	.
=107	=107	=107	=107	=107
2.F\	1r	2.A/	2.d\	0r
4E\	.	4G/	4c\	.
2D\	2r	2F/	2B\	.
[2C/	2G\	[2E/	[2A/	.
=108.	=108.	=108.	=108.	=108.
4C/]	2A\	2E/]	2A/]	1r
4BB/	.	.	.	.
4AA/	2B\	1D	1G	.
4GG/	.	.	.	.
1AA	2c\	.	.	2r
.	2c\	2C/	2F#i/	2a/
=109	=109	=109	=109	=109
[0GGl	[0Bl	0D	[0Gl	2b\
.	.	.	.	2cc\
.	.	.	.	2dd\
.	.	.	.	2dd\
=110.	=110.	=110.	=110.	=110.
0GG_	0B_	[0Dl	0G_	1.g
.	.	.	.	4f/
.	.	.	.	4e/
=111	=111	=111	=111	=111
0GG_	0B_	0D_	0G_	0d
=112.	=112.	=112.	=112.	=112.
0GG]	0B]	0D]	0G]	0dl
!!LO:LB:i:g=z
=113||	=113||	=113||	=113||	=113||
*>B	*>B	*>B	*>B	*>B
*clefF4	*clefF4	*clefGv2	*clefGv2	*clefG2
*k[]	*k[]	*k[]	*k[]	*k[]
*M2/1	*M2/1	*M2/1	*M2/1	*M2/1
*met(C2)	*met(C2)	*met(C2)	*met(C2)	*met(C2)
!!section: Et incarnatus est
!!!OMD: Et incarnatus est
0G	0r	1r	0d	0g
.	.	2.G/	.	.
.	.	4A/	.	.
=114	=114	=114	=114	=114
1G	0r	2B\	1d	1g
.	.	2c\	.	.
1G	.	2d\	1d	1g
.	.	2B\	.	.
=115	=115	=115	=115	=115
1C	0c	1c	1e	1g
1C	.	1G	2.c\	1g
.	.	.	4d\	.
=116	=116	=116	=116	=116
0C	1c	0G	2e\	0e
.	.	.	2f\	.
.	1c	.	2g\	.
.	.	.	2e\	.
=117	=117	=117	=117	=117
1r	1F	1r	[0f	1r
2.D\	1F	1d	.	[1a
4E\	.	.	.	.
=118	=118	=118	=118	=118
2F\	0F	2.c\	0f]	1a]
2G\	.	.	.	.
.	.	4B\	.	.
2A\	.	1A	.	1a
2F\	.	.	.	.
=119	=119	=119	=119	=119
0G	1r	1G	1r	1b
.	2.G\	[1d	1d	[1b
.	4A\	.	.	.
=120	=120	=120	=120	=120
0G	2B\	2d\]	1d	1b]
.	2c\	1B	.	.
.	2d\	.	1d	[1g
.	2B\	2G/	.	.
=121	=121	=121	=121	=121
[0C	0c	[0G	1e	0g]
.	.	.	2.c\	.
.	.	.	4d\	.
=122	=122	=122	=122	=122
0C]	0c	0G]	2e\	0e
.	.	.	2f\	.
.	.	.	2g\	.
.	.	.	2e\	.
=123	=123	=123	=123	=123
1r	[0F	1r	[0f	1r
2.D\	.	1d	.	[1a
4E\	.	.	.	.
=124	=124	=124	=124	=124
2F\	0F]	2.c\	0f]	1a]
2G\	.	.	.	.
.	.	4B\	.	.
2A\	.	1A	.	1cc
2F\	.	.	.	.
=125	=125	=125	=125	=125
1G	1r	1G	1r	1b
1E	2.G\	1C	1c	1g
.	4A\	.	.	.
=126	=126	=126	=126	=126
0D	2B\	0F	2d\	2f/
.	2c\	.	2d\	1a
.	2d\	.	1d	.
.	2B\	.	.	4g/
.	.	.	.	4f/
=127	=127	=127	=127	=127
0C	1c	1G	1e	0e
.	1A	1c	1c	.
=128	=128	=128	=128	=128
1r	0G	2B\	0g	1r
.	.	2.d\	.	.
1G	.	.	.	1b
.	.	4c\	.	.
.	.	2B\	.	.
=129	=129	=129	=129	=129
1.A	0F	1A	1r	1.cc
.	.	[1F	1c	.
2G\	.	.	.	2b\
=130	=130	=130	=130	=130
1F	1r	1F]	1d	1a
1E	1c	1G	1e	1g
=131	=131	=131	=131	=131
[0D	1.d	0A	1.f	2.f/
.	.	.	.	4g/
.	.	.	.	4a/
.	.	.	.	4b-i\
.	2c\	.	2e\	[2a/
=132	=132	=132	=132	=132
0D]	1B	1r	0d	2a/]
.	.	.	.	1g
.	1A	1d	.	.
.	.	.	.	2f#i/
=133	=133	=133	=133	=133
0r	[0G	2d\	1r	1g
.	.	2d\	.	.
.	.	2.B\	1d	1r
.	.	4A/	.	.
=134	=134	=134	=134	=134
0r	0G]	1G	2d\	1dd
.	.	.	2d\	.
.	.	2r	2.B\	2dd\
.	.	2G/	.	2dd\
.	.	.	4A/	.
=135	=135	=135	=135	=135
0r	0r	2G/	1G	2.b\
.	.	2G/	.	.
.	.	.	.	4a/
.	.	2.E/	2r	1g
.	.	.	2G/	.
.	.	4D/	.	.
=136	=136	=136	=136	=136
0r	0r	1C	2G/	2r
.	.	.	2G/	2g/
.	.	2r	2.c\	2g/
.	.	2C/	.	2g/
.	.	.	4B\	.
=137	=137	=137	=137	=137
0r	0r	2C/	2A/	2.cc\
.	.	2C/	2G/	.
.	.	.	.	4b\
.	.	2F/	2F/	2a/
.	.	2C/	[2E/	2g/
=138	=138	=138	=138	=138
0r	0r	2.F/	4E/]	1f
.	.	.	4D/	.
.	.	.	1d	.
.	.	4G/	.	.
.	.	1A	.	1e
.	.	.	2c#i\	.
=139	=139	=139	=139	=139
2r	0r	0D	1d	0d
2D\	.	.	.	.
2D\	.	.	2r	.
2D\	.	.	2d\	.
=140	=140	=140	=140	=140
2.G\	0r	1r	2d\	0r
.	.	.	2d\	.
4F\	.	.	.	.
2E\	.	2r	2.g\	.
2D\	.	2D/	.	.
.	.	.	4f\	.
=141	=141	=141	=141	=141
1C	2r	2.E/	2e\	2r
.	2G\	.	2c\	2g/
.	.	4F/	.	.
1BB	2G\	2D/	1d	2g/
.	2G\	2D/	.	2g/
=142	=142	=142	=142	=142
0AA	2.c\	1E	0c	2.a/
.	4B\	.	.	4g/
.	2A\	2c\	.	2f/
.	2G\	2B\	.	4e/
.	.	.	.	4d/
=143	=143	=143	=143	=143
0r	1F	2A/	0r	2e/
.	.	1A	.	1d
.	1E	.	.	.
.	.	2G/	.	2c#i/
=144	=144	=144	=144	=144
2r	0D	0A	1r	0d
2D\	.	.	.	.
2D\	.	.	2r	.
2D\	.	.	2d\	.
=145	=145	=145	=145	=145
2.G\	0r	2r	2d\	0r
.	.	2G/	2d\	.
4F\	.	.	.	.
2E\	.	2G/	2.g\	.
2D\	.	2A/	.	.
.	.	.	4f\	.
=146	=146	=146	=146	=146
1C	2r	2c\	2e\	0r
.	2G\	4B\	2c\	.
.	.	4A/	.	.
1BB	2G\	4G/	1d	.
.	.	4A/	.	.
.	2G\	4B\	.	.
.	.	4G/	.	.
=147	=147	=147	=147	=147
1AA	2.c\	1A	1c	1r
.	4B\	.	.	.
[1D	2A\	[1A	2d\	[1a
.	2G\	.	2e\	.
=148	=148	=148	=148	=148
1D]	1F	1A]	2f\	1a]
.	.	.	1d	.
1AA	1E	1A	.	1a
.	.	.	2c#i\	.
=149	=149	=149	=149	=149
1D	1D	1A	0d	1f
1GG	[1G	1B	.	2r
.	.	.	.	2d/
=150	=150	=150	=150	=150
1C	1G]	1c	1r	1e
2BB/	1D	1d	1d	1f
2AA/	.	.	.	.
=151	=151	=151	=151	=151
1GG	1G	1B	1d	1g
2r	1C	1r	1e	2r
2C/	.	.	.	2e/
=152	=152	=152	=152	=152
1D	1F	1r	1d	1f
1E	2E\	2r	1B	1g
.	2D\	2G/	.	.
=153	=153	=153	=153	=153
1AA	1C	2E/	1c	1a
.	.	2.A/	.	.
1D	2r	.	1d	2a/
.	.	4G/	.	.
.	2F\	4F/	.	[2dd\
.	.	4E/	.	.
=154	=154	=154	=154	=154
2BB/	1G	2D/	0r	2dd\]
2C/	.	1G	.	1cc
1AA	1A	.	.	.
.	.	2F#i/	.	4b\
.	.	.	.	4a/
=155	=155	=155	=155	=155
[0GGl	[0Dl	[0Gl	1d	[0bl
.	.	.	2d\	.
.	.	.	2d\	.
=156	=156	=156	=156	=156
0GG]	0D]	0G]	0dl	0b]
!!LO:LB:i:g=z
=157||	=157||	=157||	=157||	=157||
*>C	*>C	*>C	*>C	*>C
*clefF4	*clefF4	*clefGv2	*clefGv2	*clefG2
*k[]	*k[]	*k[]	*k[]	*k[]
*M2/1	*M2/1	*M2/1	*M2/1	*M2/1
*met(C2)	*met(C2)	*met(C2)	*met(C2)	*met(C2)
!!section: Et resurrexit
!!!OMD: Et resurrexit
0r	0r	1d	0r	0r
.	.	2B\	.	.
.	.	2c\	.	.
=158.	=158.	=158.	=158.	=158.
0r	0r	1A	1r	0r
.	.	1G	1g	.
=159	=159	=159	=159	=159
0r	0r	2r	2e\	0r
.	.	2A/	2f\	.
.	.	1B	1d	.
=160.	=160.	=160.	=160.	=160.
0r	0r	1c	1c	1r
.	.	1A	2r	1cc
.	.	.	2c\	.
=161	=161	=161	=161	=161
0r	0r	2F/	1d	2a/
.	.	2G/	.	2b\
.	.	1E	1e	1g
=162.	=162.	=162.	=162.	=162.
1r	0r	2.D/	1f	1f
.	.	4E/	.	.
1D	.	4F/	1d	2r
.	.	4G/	.	.
.	.	2A/	.	2f/
=163	=163	=163	=163	=163
2BB/	0r	2D/	0r	1g
2C/	.	1G	.	.
1AA	.	.	.	1a
.	.	2F#i/	.	.
=164.	=164.	=164.	=164.	=164.
2GG/	1r	0G	1d	1b
2GG/	.	.	.	.
2C/	1G	.	2G/	1g
2BB/	.	.	[2B\	.
=165	=165	=165	=165	=165
2C/	2E\	0r	4B\]	0r
.	.	.	4A/	.
2AA/	2F\	.	1A	.
1BB	1D	.	.	.
.	.	.	2G#i/	.
=166.	=166.	=166.	=166.	=166.
[0AA	2C/	0r	2.A/	0r
.	2C/	.	.	.
.	.	.	4B\	.
.	2F\	.	4c\	.
.	.	.	4d\	.
.	2E\	.	2e\	.
=167	=167	=167	=167	=167
0AA]	2F\	1r	2A/	0r
.	2D\	.	1d	.
.	1E	1A	.	.
.	.	.	2c#i\	.
=168.	=168.	=168.	=168.	=168.
0r	[0D	2A/	[0d	1r
.	.	2A/	.	.
.	.	2.F/	.	1a
.	.	4E/	.	.
=169	=169	=169	=169	=169
0r	0D]	2D/	0d]	2a/
.	.	2A/	.	2a/
.	.	2B-i\	.	2.f/
.	.	[2A/	.	.
.	.	.	.	4e/
=170.	=170.	=170.	=170.	=170.
0r	0r	2A/]	0r	2d/
.	.	4G/	.	2a/
.	.	4F/	.	.
.	.	2G/	.	2b-i\
.	.	[2F/	.	[2a/
=171	=171	=171	=171	=171
0r	0r	2F/]	2r	2a/]
.	.	4E/	1d	4g/
.	.	4D/	.	4f/
.	.	1E	.	1g
.	.	.	2c\	.
=172.	=172.	=172.	=172.	=172.
0r	0r	2D/	2d\	1f
.	.	2A/	2c\	.
.	.	2B-i\	2d\	1r
.	.	[2A/	2e\	.
=173	=173	=173	=173	=173
0r	0r	2A/]	1f	2r
.	.	4G/	.	2a/
.	.	4F/	.	.
.	.	2G/	2e\	2b-i\
.	.	2F/	[2f\	[2a/
=174.	=174.	=174.	=174.	=174.
0r	0r	2D/	4f\]	2a/]
.	.	.	4e\	.
.	.	2F/	1d	4g/
.	.	.	.	4f/
.	.	1E	.	1g
.	.	.	2c#i\	.
=175	=175	=175	=175	=175
1A	0r	1D	2d\	0f
.	.	.	2f\	.
2A\	.	2r	2f\	.
2A\	.	2A/	2f\	.
=176.	=176.	=176.	=176.	=176.
2.F\	0r	2A/	2f\	1r
.	.	2B\	2e\	.
4G\	.	.	.	.
2E\	.	2G/	2c\	1g
2E\	.	2G/	4d\	.
.	.	.	4c\	.
=177	=177	=177	=177	=177
0D	1d	0A	0d	2f/
.	.	.	.	2f/
.	2d\	.	.	2.f/
.	2d\	.	.	.
.	.	.	.	4d/
=178.	=178.	=178.	=178.	=178.
1r	2.B\	1r	1r	4e/
.	.	.	.	4d/
.	.	.	.	1g
.	4c\	.	.	.
2r	2A\	2r	2r	.
2D\	2A\	2D/	2d\	2f#i/
=179	=179	=179	=179	=179
2E\	0G	2G/	2c\	0g
2F\	.	2A/	2d\	.
2G\	.	2B\	2B\	.
2E\	.	2G/	2c\	.
=180.	=180.	=180.	=180.	=180.
2F\	1r	2A/	2d\	1r
2G\	.	2B\	2d\	.
1C	2r	1c	1e	2r
.	2G\	.	.	2e/
=181	=181	=181	=181	=181
0r	2A\	0r	0r	2f/
.	2B\	.	.	2g/
.	2c\	.	.	2e/
.	2A\	.	.	2f/
=182.	=182.	=182.	=182.	=182.
1r	2B\	1r	1r	2g/
.	2c\	.	.	2g/
2r	1F	2r	2r	1a
2D\	.	2F/	2d\	.
=183	=183	=183	=183	=183
2E\	0r	2G/	2c\	0r
2F\	.	2A/	2d\	.
2G\	.	2B\	2B\	.
2E\	.	2G/	2c\	.
=184.	=184.	=184.	=184.	=184.
2F\	1r	2A/	2d\	1r
2G\	.	2B\	2d\	.
1C	2r	1c	1e	2r
.	2G\	.	.	2e/
=185	=185	=185	=185	=185
0r	2A\	0r	0r	2f/
.	2B\	.	.	2g/
.	2c\	.	.	2e/
.	2A\	.	.	2f/
=186.	=186.	=186.	=186.	=186.
1r	2B\	1r	1r	2g/
.	2c\	.	.	2g/
2r	1F	[1A	2r	1a
[2D\	.	.	[2f\	.
=187	=187	=187	=187	=187
2D\]	0r	1A]	2f\]	0r
2C/	.	.	2e\	.
2D\	.	1A	2f\	.
[2F\	.	.	[2d\	.
=188.	=188.	=188.	=188.	=188.
4F\]	1r	1F	4d\]	1r
4E\	.	.	4c\	.
4D\	.	.	2B\	.
4C/	.	.	.	.
2D\	2r	2D/	2A/	2r
2GG/	[2G\	[2D/	2G/	2b\
=189	=189	=189	=189	=189
1AA	2G\]	2D/]	1c	2cc\
.	2F\	2C/	.	2a/
1GG	2G\	1D	1B	2b\
.	[2B\	.	.	[2dd\
=190.	=190.	=190.	=190.	=190.
0r	4B\]	2.G/	0r	4dd\]
.	4A\	.	.	4cc\
.	4G\	.	.	4b\
.	4F\	4A/	.	4a/
.	2G\	2B\	.	2g/
.	2C/	[2c\	.	2e/
=191	=191	=191	=191	=191
1r	1D	2c\]	1r	1f
.	.	2B\	.	.
1G	1C	1c	2r	1e
.	.	.	2e\	.
=192.	=192.	=192.	=192.	=192.
2F\	0r	2.A/	4f\	0r
.	.	.	4e\	.
2F\	.	.	4d\	.
.	.	4G/	4c\	.
2D\	.	2F/	4B\	.
.	.	.	4A/	.
2AA/	.	[2E/	4c\	.
.	.	.	4B\	.
=193	=193	=193	=193	=193
2D\	1r	2E/]	4A/	2r
.	.	.	4G/	.
2GG/	.	1D	1G	2b\
1AA	1c	.	.	2cc\
.	.	2C/	2F#i/	2a/
=194.	=194.	=194.	=194.	=194.
0GG	2B\	1D	0G	2b\
.	2B\	.	.	2.dd\
.	2G\	2.G/	.	.
.	.	.	.	4cc\
.	2D\	.	.	4b\
.	.	4A/	.	4a/
=195	=195	=195	=195	=195
0r	2G\	2B\	0r	2g/
.	2C/	1c	.	2e/
.	1D	.	.	1f
.	.	2B\	.	.
=196.	=196.	=196.	=196.	=196.
1C	0C	1c	0g	1e
1C	.	1c	.	1e
=197	=197	=197	=197	=197
1C	0r	1c	1e	1g
1C	.	1c	1e	1g
=198.	=198.	=198.	=198.	=198.
1D	0F	0A	1d	1f
1D	.	.	[1f	[1a
=199	=199	=199	=199	=199
1F	1F	1A	2f\]	1a]
.	.	.	4e\	.
.	.	.	4d\	.
1F	1F	1A	2c\	1cc
.	.	.	2d\	.
=200.	=200.	=200.	=200.	=200.
0E	1G	1G	2e\	2cc\
.	.	.	1d	1b
.	1G	1E	.	.
.	.	.	2c\	4a/
.	.	.	.	4g/
=201	=201	=201	=201	=201
[0D	1B-i	1.F	0d	2f/
.	.	.	.	2d/
.	1B-i	.	.	2f/
.	.	2D/	.	2g/
=202.	=202.	=202.	=202.	=202.
0D]	0A	1D	0d	4a/
.	.	.	.	4g/
.	.	.	.	4f/
.	.	.	.	4e/
.	.	2r	.	1f
.	.	[2D/	.	.
=203	=203	=203	=203	=203
[0GG	[0G	2D/]	0B	1g
.	.	2D/	.	.
.	.	2E/	.	2r
.	.	2D/	.	[2d/
=204.	=204.	=204.	=204.	=204.
0GG]	0G]	1G	0r	2d/]
.	.	.	.	2d/
.	.	2r	.	2e/
.	.	[2G/	.	2d/
=205	=205	=205	=205	=205
0r	[0C	2G/]	0r	1g
.	.	2G/	.	.
.	.	2A/	.	2r
.	.	2G/	.	[2g/
=206.	=206.	=206.	=206.	=206.
0r	0C]	0c	0r	2g/]
.	.	.	.	2g/
.	.	.	.	2a/
.	.	.	.	2g/
=207	=207	=207	=207	=207
0r	0r	2r	0r	1cc
.	.	2A/	.	.
.	.	2B\	.	2r
.	.	[2d\	.	2a/
=208.	=208.	=208.	=208.	=208.
0r	0r	4d\]	1r	2b\
.	.	4c\	.	.
.	.	4B\	.	2.dd\
.	.	4A/	.	.
.	.	2G/	2r	.
.	.	.	.	4cc\
.	.	2B\	2d\	4b\
.	.	.	.	4a/
=209	=209	=209	=209	=209
0r	0r	2c\	2e\	2g/
.	.	2G/	1g	2b\
.	.	2c\	.	2cc\
.	.	2B\	4f\	[2dd\
.	.	.	4e\	.
=210.	=210.	=210.	=210.	=210.
0r	0r	2c\	4f\	4dd\]
.	.	.	4e\	4cc\
.	.	2A/	4d\	1cc
.	.	.	4c\	.
.	.	1G	1d	.
.	.	.	.	2b\
=211	=211	=211	=211	=211
1r	0r	0C	2c\	0cc
.	.	.	4A/	.
.	.	.	4B\	.
2r	.	.	4c\	.
.	.	.	4d\	.
[2C/	.	.	[2e\	.
=212.	=212.	=212.	=212.	=212.
2C/]	0r	0r	2e\]	0r
2D\	.	.	1d	.
1E	.	.	.	.
.	.	.	2c#i\	.
=213	=213	=213	=213	=213
2D\	1r	0r	0d	0r
2F\	.	.	.	.
2G\	2r	.	.	.
[2A\	[2F\	.	.	.
=214.	=214.	=214.	=214.	=214.
2A\]	2F\]	0r	0r	0r
1G	2G\	.	.	.
.	1A	.	.	.
2F#i\	.	.	.	.
=215	=215	=215	=215	=215
2G\	2G\	0r	0r	0r
2G\	2B\	.	.	.
2G\	2c\	.	.	.
4F\	[2d\	.	.	.
4E\	.	.	.	.
=216.	=216.	=216.	=216.	=216.
4F\	2d\]	0r	1r	0r
4E\	.	.	.	.
4D\	1c	.	.	.
4C/	.	.	.	.
1D	.	.	1d	.
.	2B\	.	.	.
=217	=217	=217	=217	=217
0C	2c\	0r	2e\	0r
.	2c\	.	2e\	.
.	2c\	.	2e\	.
.	4B\	.	4d\	.
.	4A\	.	4c\	.
=218.	=218.	=218.	=218.	=218.
0r	4B\	0r	4d\	1r
.	4A\	.	4c\	.
.	4G\	.	4B\	.
.	4F\	.	4A/	.
.	1G	.	1B	1g
=219	=219	=219	=219	=219
0r	0F	0r	1A	2a/
.	.	.	.	2a/
.	.	.	1A	2a/
.	.	.	.	4g/
.	.	.	.	4f/
=220.	=220.	=220.	=220.	=220.
0r	0r	1r	2c\	4g/
.	.	.	.	4f/
.	.	.	4B\	4e/
.	.	.	4A/	4d/
.	.	1G	2c\	2e/
.	.	.	2B\	2b\
=221	=221	=221	=221	=221
0r	0r	2A/	2A/	1.cc
.	.	2A/	2e\	.
.	.	2A/	2.f\	.
.	.	4G/	.	4b\
.	.	4F/	4e\	4a/
=222.	=222.	=222.	=222.	=222.
0r	0r	4G/	2d\	2b\
.	.	4F/	.	.
.	.	4E/	2c\	1a
.	.	4D/	.	.
.	.	1E	1B	.
.	.	.	.	2g#i/
=223	=223	=223	=223	=223
0r	0r	1r	2A/	0a
.	.	.	2.c\	.
.	.	1c	.	.
.	.	.	4B\	.
.	.	.	[2A/	.
=224.	=224.	=224.	=224.	=224.
0r	0r	1B	2A/]	1r
.	.	.	2G/	.
.	.	2A/	1A	1cc
.	.	[2A/	.	.
=225	=225	=225	=225	=225
0r	0r	2A/]	1E	1b
.	.	2G/	.	.
.	.	2A/	1r	2a/
.	.	2F/	.	[2a/
=226.	=226.	=226.	=226.	=226.
0r	0r	1E	2e\	2a/]
.	.	.	1e	2g/
.	.	1r	.	2a/
.	.	.	2d\	2f/
=227	=227	=227	=227	=227
0r	0r	2A/	2e\	1e
.	.	1A	2c\	.
.	.	.	1B	1r
.	.	2G/	.	.
=228.	=228.	=228.	=228.	=228.
0r	0r	2A/	1r	2a/
.	.	2F/	.	1a
.	.	1E	2e\	.
.	.	.	[2e\	2g/
=229	=229	=229	=229	=229
0r	0r	2.F/	2e\]	2a/
.	.	.	2d\	2f/
.	.	4E/	.	.
.	.	2C/	2e\	2e/
.	.	[2D/	[2f\	[2a/
=230.	=230.	=230.	=230.	=230.
0r	0r	4D/]	4f\]	4a/]
.	.	4E/	4e\	4g/
.	.	4F/	1d	2f/
.	.	4G/	.	.
.	.	1A	.	1e
.	.	.	2c#i\	.
=231	=231	=231	=231	=231
2D\	0r	2r	1d	1d
1D	.	2F/	.	.
.	.	2F/	1r	1r
2C/	.	2E/	.	.
=232.	=232.	=232.	=232.	=232.
2D\	0r	2F/	0r	0r
2BB/	.	2D/	.	.
2AA/	.	2C/	.	.
[2D\	.	2F/	.	.
=233	=233	=233	=233	=233
4D\]	2G\	2E/	1r	0r
4C/	.	.	.	.
2BB/	1G	1D	.	.
1AA	.	.	1A	.
.	2F#i\	2C/	.	.
=234.	=234.	=234.	=234.	=234.
[0GG	2G\	1D	2.B\	1.g
.	2E\	.	.	.
.	.	.	4c\	.
.	2D\	[1G	2d\	.
.	[2G\	.	2e\	2g/
=235	=235	=235	=235	=235
0GG]	4G\]	2G/]	2d\	1g
.	4F\	.	.	.
.	2E\	2G/	1c	.
.	1D	2G/	.	1g
.	.	2G/	2B\	.
=236.	=236.	=236.	=236.	=236.
0r	[0C	1G	[0c	2.e/
.	.	.	.	4f/
.	.	2.E/	.	2g/
.	.	.	.	2a/
.	.	4F/	.	.
=237	=237	=237	=237	=237
0r	0C]	2G/	0c]	2g/
.	.	2A/	.	2.cc\
.	.	2G/	.	.
.	.	.	.	4b\
.	.	[2c\	.	4a/
.	.	.	.	4g/
=238.	=238.	=238.	=238.	=238.
0r	0r	4c\]	0r	2a/
.	.	4B\	.	.
.	.	4A/	.	1g
.	.	4G/	.	.
.	.	1A	.	.
.	.	.	.	2f#i/
=239	=239	=239	=239	=239
1.G	0r	0G	1.d	1g
.	.	.	.	2r
2G\	.	.	2d\	[2g/
=240.	=240.	=240.	=240.	=240.
1G	0r	0r	1d	2g/]
.	.	.	.	2g/
1G	.	.	1e	2g/
.	.	.	.	2g/
=241	=241	=241	=241	=241
1F	1.c	0r	1f	1a
1F	.	.	1f	2a/
.	2c\	.	.	[2cc\
=242.	=242.	=242.	=242.	=242.
1F	1c	0r	1f	4cc\]
.	.	.	.	4b\
.	.	.	.	4a/
.	.	.	.	4g/
1F	1c	.	1f	1a
=243	=243	=243	=243	=243
1G	1B	0r	1d	2.b\
.	.	.	.	4g/
1G	1B	.	1d	2g/
.	.	.	.	2g/
=244.	=244.	=244.	=244.	=244.
2G\	1B	0r	2d\	2g/
2G\	.	.	2d\	2g/
2G\	1B	.	2e\	2g/
2G\	.	.	2e\	2g/
=245	=245	=245	=245	=245
1F	1c	0r	1f	2.a/
.	.	.	.	4b\
1F	1c	.	1f	2cc\
.	.	.	.	[2cc\
=246.	=246.	=246.	=246.	=246.
1F	2c\	0r	1f	4cc\]
.	.	.	.	4b\
.	2c\	.	.	4a/
.	.	.	.	4g/
1F	2c\	.	1f	2.a/
.	2c\	.	.	.
.	.	.	.	4b\
=247	=247	=247	=247	=247
[0G	1B	1r	0d	1.b
.	1B	1G	.	.
.	.	.	.	2g/
=248.	=248.	=248.	=248.	=248.
0G]	1B	2G/	1r	0g
.	.	2.E/	.	.
.	1B	.	1g	.
.	.	4F/	.	.
.	.	2G/	.	.
=249	=249	=249	=249	=249
0r	[0c	0C	2g\	0r
.	.	.	2.e\	.
.	.	.	4f\	.
.	.	.	2g\	.
=250.	=250.	=250.	=250.	=250.
0r	0c]	2r	2.c\	1r
.	.	2A/	.	.
.	.	.	4B\	.
.	.	1A	1A	1cc
=251	=251	=251	=251	=251
0r	0r	2A/	0r	2cc\
.	.	2.F/	.	2.a/
.	.	4G/	.	4b\
.	.	2A/	.	2cc\
=252.	=252.	=252.	=252.	=252.
0r	0r	1.D	2r	2.f/
.	.	.	2d\	.
.	.	.	.	4e/
.	.	.	1d	1d
.	.	4E/	.	.
.	.	4F/	.	.
=253	=253	=253	=253	=253
0r	0r	0G	2d\	2r
.	.	.	2.B\	2dd\
.	.	.	.	1dd
.	.	.	4c\	.
.	.	.	2d\	.
=254.	=254.	=254.	=254.	=254.
1r	0r	0r	1G	2dd\
.	.	.	.	2.b\
1G	.	.	1r	.
.	.	.	.	4cc\
.	.	.	.	2dd\
=255	=255	=255	=255	=255
2G\	0r	0r	1g	2b\
2.E\	.	.	.	2.g/
.	.	.	2g\	.
4F\	.	.	.	4a/
2G\	.	.	[2e\	2b\
=256.	=256.	=256.	=256.	=256.
2.C/	1r	1r	4e\]	0e
.	.	.	4f\	.
.	.	.	2g\	.
4BB/	.	.	.	.
1AA	1c	1A	2.c\	.
.	.	.	4d\	.
=257	=257	=257	=257	=257
2r	2c\	2A/	2e\	0r
2A\	2.A\	2.F/	1f	.
1A	.	.	.	.
.	4B\	4G/	.	.
.	2c\	2A/	2e\	.
=258.	=258.	=258.	=258.	=258.
2A\	2.F\	2D/	0f	0r
2.F\	.	2.A/	.	.
.	4E\	.	.	.
.	1D	.	.	.
4G\	.	4G/	.	.
2A\	.	4F/	.	.
.	.	4E/	.	.
=259	=259	=259	=259	=259
2D\	2r	2F/	0r	1r
2.BB/	2d\	1G	.	.
.	1d	.	.	2r
4C/	.	.	.	.
2D\	.	2F#i/	.	2a/
=260.	=260.	=260.	=260.	=260.
0GG	2d\	0G	0r	2b\
.	2.B\	.	.	2.dd\
.	4c\	.	.	4cc\
.	2d\	.	.	4b\
.	.	.	.	4a/
=261	=261	=261	=261	=261
0r	2G\	2r	0r	2b\
.	2.E\	2G/	.	2.g/
.	.	2A/	.	.
.	4F\	.	.	4f/
.	2G\	2B\	.	4e/
.	.	.	.	4d/
=262.	=262.	=262.	=262.	=262.
0r	0C	0c	1r	1e
.	.	.	2r	1c
.	.	.	2c\	.
=263	=263	=263	=263	=263
0r	0r	2B\	2d\	0r
.	.	2G/	2e\	.
.	.	2A/	1f	.
.	.	2B\	.	.
=264.	=264.	=264.	=264.	=264.
0r	0r	1c	2e\	1r
.	.	.	2c\	.
.	.	1G	2d\	2r
.	.	.	2e\	2g/
=265	=265	=265	=265	=265
0r	0r	2r	1f	2a/
.	.	2d\	.	2b\
.	.	2c\	2e\	1cc
.	.	2A/	2c\	.
=266.	=266.	=266.	=266.	=266.
0r	0r	2G/	2d\	2b\
.	.	2.c\	2e\	2g/
.	.	.	2f\	2a/
.	.	4B\	.	.
.	.	4A/	[2g\	2b\
.	.	4G/	.	.
=267	=267	=267	=267	=267
0r	0r	1A	4g\]	1cc
.	.	.	4f\	.
.	.	.	2f\	.
.	.	1G	2.g\	2.b\
.	.	.	4f\	4a/
=268.	=268.	=268.	=268.	=268.
0r	0r	2C/	2e\	2g/
.	.	2D/	2d\	2f/
.	.	2.C/	2e\	2g/
.	.	.	[2c\	2e/
.	.	4D/	.	.
=269	=269	=269	=269	=269
0r	0r	4E/	2c\]	2e/
.	.	4F/	.	.
.	.	4G/	4B\	4d/
.	.	4A/	4A/	4c/
.	.	1G	1B	1d
=270	=270.	=270	=270	=270
*M3/1	*	*M3/1	*M3/1	*M3/1
*met(3)	*	*met(3)	*met(3)	*met(3)
!!primary-mensuration: met(3)
!	!LO:N:vis=0	!	!	!
0G	0.r	0.C	0.c	1c
.	.	.	.	1g
1G	.	.	.	1g
=271	=271	=271	=271	=271
!	!LO:N:vis=0	!	!	!
1E	0.r	0.r	0.r	1g
1F	.	.	.	1a
1G	.	.	.	1b
=272	=272	=272	=272	=272
*	*M3/1	*	*	*
*	*met(3)	*	*	*
0A	0c	0.r	0e	0cc
[1F	1c	.	1f	[1a
=273	=273	=273	=273	=273
1F]	1A	1r	1d	1a]
0E	1B	1r	1e	0g
.	1c	1G	1e	.
=274	=274	=274	=274	=274
0.D	0d	0A	1f	0.f
.	.	.	1.a	.
.	[1B	1F	.	.
.	.	.	2g\	.
=275	=275	=275	=275	=275
0.r	1B]	1G	1.g	1r
.	0A	0D	.	1r
.	.	.	2f#i\	.
.	.	.	1f#i	1a
=276	=276	=276	=276	=276
0G	0.G	1.G	0.g	1b
.	.	.	.	0dd
.	.	2A/	.	.
1G	.	1B	.	.
=277	=277	=277	=277	=277
1E	0.r	1c	0.r	1.cc
1F	.	0d	.	.
.	.	.	.	2b\
1G	.	.	.	1b
=278	=278	=278	=278	=278
1.A	0c	0c	0e	0cc
2G\	.	.	.	.
1A	1c	[1F	1f	[1a
=279	=279	=279	=279	=279
1F	1A	1F]	1d	1a]
0E	1B	0G	1e	0g
.	1c	.	1e	.
=280	=280	=280	=280	=280
1.D	1.d	1A	0A	0.f
.	.	1F	.	.
2E\	2c\	.	.	.
2F\	1d	1A	[1d	.
2D\	.	.	.	.
=281	=281	=281	=281	=281
0G	1B	1G	1d]	1r
.	0A	0D	0d	1r
1F#i	.	.	.	1a
=282	=282	=282	=282	=282
2G\	1.G	0.G	1.d	1b
2A\	.	.	.	.
2B\	.	.	.	0dd
2c\	2A\	.	2c\	.
1B	2B\	.	1d	.
.	2G\	.	.	.
=283	=283	=283	=283	=283
0A	0c	0.r	1e	1cc
.	.	.	1f	1a
1G	1B	.	2g\	1dd
.	.	.	2f\	.
=284	=284	=284	=284	=284
1.A	2c\	0.r	2e\	1cc
.	2d\	.	2d\	.
.	2e\	.	1c	1a
2F\	2f\	.	.	.
2G\	1e	.	1B	2b\
2F\	.	.	.	2a/
=285	=285	=285	=285	=285
2E\	0d	1r	0A	2g/
2D\	.	.	.	2f/
0E	.	1r	.	1.g
.	1c#i	1C	1G	.
.	.	.	.	2e/
=286	=286	=286	=286	=286
1D	1.d	1F	0.A	2f/
.	.	.	.	2g/
1D	.	1F	.	2a/
.	2B\	.	.	2b\
1AA	2c\	1C	.	1a
.	2B\	.	.	.
=287	=287	=287	=287	=287
1BB	2A\	1D	1r	1.g
.	2G\	.	.	.
1C	0A	1E	1r	.
.	.	.	.	2f#i/
1D	.	1F	1d	1f#i
=288	=288	=288	=288	=288
1GG	[0.Gl	1D	1B	[0.gl
2C/	.	1.C	1.e	.
2D\	.	.	.	.
2E\	.	.	.	.
2F\	.	2D/	2d\	.
=289	=289	=289	=289	=289
1G	0.G_	2E/	1B	0.g_
.	.	2F/	.	.
1C	.	2G/	1e	.
.	.	2A/	.	.
1BB	.	2B\	1d	.
.	.	2c\	.	.
=290	=290	=290	=290	=290
1GG	0.G_	1d	1B	0.g_
1C	.	1.G	1.e	.
1BB	.	.	.	.
.	.	2F/	2d\	.
=291	=291	=291	=291	=291
1GG	0.G_	2E/	1B	0.g_
.	.	2D/	.	.
0C	.	0E	0c	.
=292	=292	=292	=292	=292
[0.GGl	0.G_	[0.D	[0.d	0.g_
=293	=293	=293	=293	=293
0.GG_	0.G_	0.D]	0.d]	0.g_
=294	=294	=294	=294	=294
0.GG]	0.G]	0.Dl	0.dl	0.g]
==	==	==	==	==
*-	*-	*-	*-	*-
!!!RDF**kern: l=long note in original notation
!!!RDF**kern: i=editorial accidental
!!!RDF**kern: V=start of tuplet marker
!!!RDF**kern: Z=end of tuplet marker
!!!ENC:	Chris Gage 10-23-2012
!!!END:	2012/11/11/
!!!EED:	Jesse Rodin
!!!EEV:	2012/12/15/
!!!ONB:	Translated from MusicXML and edited on 2012/12/15/ by Craig Sapp
!!muse2ps: T^@{OPR}^u^@{ONM}{. }@{OTL}^C^@{COM}^i2I150v90,90,90,90,130Q8c120
